X: 3155
T: Beauty Spot, The
R: reel
M: 4/4
K: Emixolydian
B3A B2ec|dcdA FAA2|B3A B2ec|dABd FEE2|
B3A B2ec|dcdA FAA2|B3B c2ec|dcdA FEEd||
fee2 fede|fee2 faba|fee2 fedB|Bcde faed|
fee2 fede|fede faa2|bff2 afed|ABde faed||

